X:27
T:Yolanta Kruk's Polka
C:Robin Beech
Z:robin.beech@mcgill.ca
R:polka
M:2/4
L:1/8
K:D
f>e dc | dB AF | GE ee/f/ | ge cA | f>e dc |dB AF | GE ee/f/ | gc ed :|
K:G
B>c dB | gd BG | FA f>e | ce ed | B>c dB | ge dB | cA a>g | fd g2 :|
